img/footer-inst.svg

<svg width="25" height="25" viewBox="0 0 25 25" fill="none" xmlns="http://www.w3.org/2000/svg">
<path d="M10.1074 12.5C10.1074 13.8214 11.1786 14.8926 12.5 14.8926C13.8214 14.8926 14.8926 13.8214 14.8926 12.5C14.8926 11.1786 13.8214 10.1074 12.5 10.1074C11.1786 10.1074 10.1074 11.1786 10.1074 12.5Z" fill="#999999"/>
<path d="M6.9046 8.26691C7.01962 7.95525 7.2031 7.67316 7.44152 7.4416C7.67307 7.20319 7.95498 7.0197 8.26683 6.90469C8.51974 6.80646 8.89969 6.68954 9.59949 6.65768C10.3565 6.62316 10.5835 6.61572 12.5 6.61572C14.4167 6.61572 14.6437 6.62297 15.4005 6.65749C16.1003 6.68954 16.4804 6.80646 16.7332 6.90469C17.045 7.0197 17.3271 7.20319 17.5585 7.4416C17.7969 7.67316 17.9804 7.95506 18.0956 8.26691C18.1938 8.51983 18.3107 8.89996 18.3426 9.59977C18.3771 10.3566 18.3846 10.5836 18.3846 12.5003C18.3846 14.4168 18.3771 14.6438 18.3426 15.4008C18.3107 16.1006 18.1938 16.4805 18.0956 16.7334C17.9804 17.0453 17.7971 17.3272 17.5587 17.5588C17.3271 17.7972 17.0452 17.9807 16.7334 18.0957C16.4804 18.1941 16.1003 18.311 15.4005 18.3429C14.6437 18.3774 14.4169 18.3846 12.5002 18.3846C10.5833 18.3846 10.3563 18.3774 9.59969 18.3429C8.89988 18.311 8.51974 18.1941 8.26683 18.0957C7.64084 17.8542 7.14607 17.3594 6.9046 16.7334C6.80637 16.4805 6.68945 16.1006 6.65741 15.4008C6.62289 14.6438 6.61564 14.4168 6.61564 12.5003C6.61564 10.5836 6.62289 10.3566 6.65741 9.59977C6.68926 8.89996 6.80618 8.51983 6.9046 8.26691ZM12.5 16.1858C14.5357 16.1858 16.186 14.5358 16.186 12.5001C16.186 10.4644 14.5357 8.81432 12.5 8.81432C10.4645 8.81432 8.81424 10.4644 8.81424 12.5001C8.81424 14.5358 10.4645 16.1858 12.5 16.1858ZM8.66852 9.52996C9.14421 9.52996 9.52988 9.1443 9.52988 8.6686C9.52988 8.19291 9.14421 7.80724 8.66852 7.80724C8.19283 7.80724 7.80716 8.19291 7.80716 8.6686C7.80735 9.1443 8.19283 9.52996 8.66852 9.52996Z" fill="#999999"/>
<path d="M12.5 0C19.4025 0 25 5.5975 25 12.5C25 19.4025 19.4025 25 12.5 25C5.5975 25 0 19.4025 0 12.5C0 5.5975 5.5975 0 12.5 0ZM5.36556 15.4593C5.40028 16.2233 5.52177 16.745 5.69916 17.2016C6.07204 18.1658 6.83422 18.928 7.79839 19.3008C8.25481 19.4782 8.77666 19.5995 9.54056 19.6344C10.306 19.6693 10.5505 19.6777 12.4998 19.6777C14.4493 19.6777 14.6936 19.6693 15.4593 19.6344C16.2231 19.5995 16.745 19.4782 17.2014 19.3008C17.6805 19.1206 18.1143 18.8381 18.4729 18.4729C18.8379 18.1145 19.1204 17.6805 19.3007 17.2016C19.478 16.7452 19.5995 16.2233 19.6342 15.4594C19.6695 14.6938 19.6777 14.4493 19.6777 12.5C19.6777 10.5507 19.6695 10.3062 19.6344 9.54075C19.5997 8.77666 19.4784 8.255 19.301 7.79839C19.1208 7.31945 18.8381 6.88553 18.4729 6.52714C18.1145 6.16188 17.6805 5.8794 17.2016 5.69916C16.745 5.52177 16.2233 5.40047 15.4593 5.36556C14.6938 5.33066 14.4493 5.32227 12.5 5.32227C10.5507 5.32227 10.3062 5.33066 9.54075 5.36575C8.77666 5.40047 8.255 5.52177 7.79839 5.69897C7.31945 5.87921 6.88553 6.16188 6.52695 6.52714C6.16188 6.88572 5.87921 7.31945 5.69916 7.79839C5.52158 8.255 5.40028 8.77666 5.36537 9.54075C5.33047 10.3062 5.32227 10.5507 5.32227 12.5C5.32227 14.4493 5.33047 14.6938 5.36556 15.4593Z" fill="#999999"/>
</svg>

<svg width="25" height="25" fill="none" xmlns="http://www.w3.org/2000/svg"><path d="M10.107 12.5a2.393 2.393 0 1 0 4.786 0 2.393 2.393 0 0 0-4.786 0Z" fill="#999"/><path d="M6.905 8.267c.115-.312.298-.594.537-.825.231-.239.513-.422.825-.537.253-.099.633-.215 1.332-.247.758-.035.985-.042 2.901-.042 1.917 0 2.144.007 2.9.041.7.033 1.08.15 1.333.248.312.115.594.298.825.537.239.231.422.513.538.825.098.253.215.633.247 1.333.034.757.042.984.042 2.9 0 1.917-.008 2.144-.042 2.9-.032.7-.15 1.08-.247 1.333a2.225 2.225 0 0 1-.537.826 2.223 2.223 0 0 1-.826.537c-.253.098-.633.215-1.333.247-.756.034-.983.042-2.9.042-1.917 0-2.144-.008-2.9-.042-.7-.032-1.08-.149-1.333-.247a2.377 2.377 0 0 1-1.362-1.363c-.099-.253-.216-.632-.248-1.332-.034-.757-.041-.984-.041-2.9 0-1.917.007-2.144.041-2.901.032-.7.15-1.08.248-1.333Zm5.595 7.919a3.686 3.686 0 1 0 0-7.372 3.686 3.686 0 0 0 0 7.372ZM8.669 9.53a.861.861 0 1 0 0-1.723.861.861 0 0 0 0 1.723Z" fill="#999"/><path d="M12.5 0C19.402 0 25 5.598 25 12.5S19.402 25 12.5 25 0 19.402 0 12.5 5.598 0 12.5 0ZM5.366 15.46c.034.763.156 1.285.333 1.742A3.67 3.67 0 0 0 7.8 19.3c.456.177.978.299 1.742.333.765.035 1.01.044 2.959.044 1.95 0 2.194-.009 2.96-.044.763-.035 1.285-.156 1.741-.333.48-.18.913-.463 1.272-.828a3.52 3.52 0 0 0 .828-1.271c.177-.457.299-.979.333-1.743.035-.765.044-1.01.044-2.959 0-1.95-.009-2.194-.044-2.96-.034-.763-.156-1.285-.333-1.742a3.516 3.516 0 0 0-.828-1.27 3.516 3.516 0 0 0-1.271-.829c-.457-.177-.979-.299-1.743-.333-.765-.035-1.01-.044-2.959-.044-1.95 0-2.194.009-2.96.044-.763.034-1.285.156-1.742.333-.479.18-.912.463-1.271.828a3.517 3.517 0 0 0-.828 1.271c-.177.457-.299.979-.334 1.743-.035.765-.043 1.01-.043 2.959 0 1.95.008 2.194.044 2.96Z" fill="#999"/></svg>
